X:21
T:Nancy's Fancy
I:abc2nwc
M:2/4
L:1/16
K:G
|:D2|G2B2 B2AB|c2A2 A2d2|B2G2 G2B2|AGFE D2D2|
G2B2 B2AB|c2A2 A2d2|B2G2 A2F2|G4-G2:|
g2|f2e2 d2c2|B2A2 G2B2|d2g2 d2B2|(B4A2)g2|
f2e2 d2c2|B2A2 B2c2|d2g2 f2d2|g4-g2||
D2|B2B2 BAB2|c2c2 cBc2|B2B2 BAB2|AGFE D2D2|
B2B2 BAB2|c2c2 cBc2|B2G2 A2F2|G4-G2|]


